X:970
T:The Unfortunate Rake
N:"Collected by J.O'Neill"
B:O'Neill's 970
Z:Transcribed by Dan G. Petersen, dangp@post6.tele.dk
M:6/8
L:1/8
K:Em
B|Bee efg|dcB AGF|Eee efg|f^df e2E|
Eee efg|dcB AGF|GAB B^cd|AGF E2:|
F|GBB B>AG|FDF A>GF|GAB B^cd|AGF E2F|
GBB B>AG|FDF ABd|f>ed edB|A>GF E2:|


